X:247
T:Steam Packet Hornpipe. Le4.247
L:1/8
B:L.Leadley MS#4 c1850
Z:vmp.Mike Hicken 2016 www.village-music-project.org.uk
N: This is tune 39 in The Fiddler of Helperby.
N: * This note is a quaver in the original.
M:C|
Q:1/4=120
K:D
fe|dAFA (DF)AF|EGBG DFAF |D2g2 fedf|edcB Agfe|
dAFA DFAF|EFGF DFAF|D2 gf fedc|e2d2d2 :|
|: "*"d2|eAA/A/A fAA/A/A|gAA/A/A fAA/A/A|eAfA gAfA|edcB Agfe|
dAFA DFAF|EGBG DFAF|D2 ge fedc|e2d2d2 :|

